X: 1
T:Tom Billy's Reel
T:O'Keefe's Plow
R:Reel
N:IrTrad, 5/99
Z:Roger Landes
M:C|
L:1/8
K:D
dcdA BAFB|AF F/2F/2F EFDE|F/2F/2F AF G/2G/2G BG|ABde fdec|d/2d/2d dA BAF
B|AF F/2F/2F/2 EFDE|F/2F/2F AF G/2G/2G BG|1ABde fe e/2e/2e:|2ABde fdde||
fa a/2a/2a afdf|g/2g/2g fg edBd|fa a/2a/2a bafd|ABde fe e/2e/2e|fa a/2a/
2a afdf|g/2g/2g fg|{f}edBA|F/2F/2F AF G/2G/2G BG|
1ABde fe e/2e/2e:|2ABde fdec||
